lib/logo_updates/nrk-logo-nrk-sapmi-on-light.svg

<svg width="301" height="68" viewBox="0 0 301 68" fill="none" xmlns="http://www.w3.org/2000/svg">
<path d="M0 55V13.0038H13.7802V55H0ZM32.5283 19.6877L40.4532 55H25.3721L15.9092 13.0038H24.3676C26.3072 12.9786 28.1892 13.6624 29.6607 14.9264C31.1347 16.1373 32.1473 17.8184 32.5283 19.6877ZM42.5233 55V13.0038H56.3035V55H42.5233ZM66.7116 28.9743C65.2267 28.9888 63.7656 28.6003 62.4839 27.8504C61.2193 27.1194 60.1688 26.0689 59.438 24.8041C58.6872 23.5222 58.2986 22.0607 58.3134 20.5751C58.2964 19.0986 58.6853 17.6458 59.438 16.3755C60.1766 15.1245 61.2259 14.0853 62.4839 13.3588C63.766 12.6098 65.2269 12.2213 66.7116 12.2348C68.1877 12.2189 69.6399 12.6078 70.9108 13.3588C72.1562 14.0917 73.1943 15.13 73.9271 16.3755C74.6789 17.6462 75.0677 19.0987 75.0517 20.5751C75.0655 22.0605 74.6769 23.5218 73.9271 24.8041C73.202 26.0633 72.1627 27.113 70.9108 27.8504C69.6398 28.6029 68.1866 28.9918 66.7097 28.9743H66.7116ZM77.1807 55V13.0038H90.9621V55H77.1807ZM108.408 35.9538C108.447 35.9946 108.742 36.4776 109.295 37.403C109.848 38.3283 110.567 39.5114 111.454 40.952C112.341 42.392 113.277 43.9199 114.262 45.536C115.247 47.1521 116.174 48.6803 117.043 50.1202C117.908 51.5602 118.894 53.1867 120 55H104.859C103.912 53.4621 103.055 52.0721 102.286 50.83C101.517 49.5878 100.7 48.2471 99.8334 46.8077C98.9653 45.3698 98.1071 43.9699 97.2587 42.6081C96.4103 41.2464 95.6813 40.0536 95.0714 39.0297C94.459 38.0051 94.0348 37.3149 93.7989 36.9594C93.2139 36.0771 92.8677 35.058 92.7944 34.0019C92.853 32.9883 93.1791 32.0084 93.7397 31.1619C93.9762 30.7676 94.41 30.0675 95.0409 29.062C95.6717 28.0564 96.411 26.8637 97.2587 25.4835C98.1064 24.1034 98.9647 22.6936 99.8334 21.2543C100.702 19.815 101.519 18.4643 102.286 17.2025C103.056 15.9419 103.914 14.5421 104.859 13.0029H120L108.289 32.1082C107.926 32.6755 107.722 33.3292 107.697 34.0019C107.736 34.7081 107.983 35.3871 108.406 35.9538H108.408Z" fill="#0A2343"/>
<path d="M161.518 35.3106C160.664 34.43 159.675 33.6972 158.588 33.1415C157.448 32.5566 156.262 32.0696 155.042 31.6856C153.791 31.2894 152.502 30.9524 151.175 30.6744C150.158 30.4374 149.21 30.2 148.333 29.9623C147.526 29.7512 146.741 29.4623 145.988 29.0997C145.342 28.7892 144.741 28.3893 144.202 27.9112C143.695 27.4579 143.303 26.8875 143.058 26.2482C142.788 25.4964 142.659 24.7 142.678 23.9C142.664 23.0716 142.793 22.2472 143.058 21.4636C143.299 20.7723 143.701 20.1503 144.23 19.651C144.779 19.1416 145.402 18.7211 146.077 18.4042C146.849 18.0475 147.668 17.8071 148.508 17.691C149.508 17.5465 150.517 17.4771 151.527 17.483C152.447 17.4848 153.366 17.5341 154.28 17.6306C155.206 17.7286 156.126 17.8777 157.036 18.0773C157.919 18.2716 158.789 18.5197 159.643 18.8201C160.442 19.0988 161.217 19.4465 161.958 19.8591L162.778 14.6306C161.945 14.1898 161.072 13.8316 160.171 13.561C159.252 13.2843 158.324 13.0462 157.387 12.8468C156.438 12.648 155.48 12.4996 154.516 12.4022C153.539 12.3031 152.543 12.2536 151.527 12.2536C149.455 12.2309 147.388 12.4701 145.374 12.9657C143.659 13.3855 142.039 14.1321 140.599 15.1655C139.272 16.1306 138.204 17.4173 137.493 18.9082C136.735 20.5839 136.364 22.4133 136.409 24.2565C136.376 25.683 136.604 27.1033 137.083 28.445C137.503 29.5699 138.152 30.5927 138.987 31.447C139.813 32.2828 140.762 32.9843 141.8 33.5268C142.9 34.1018 144.047 34.5794 145.229 34.9541C146.459 35.3502 147.719 35.687 149.008 35.9643C150.063 36.2013 151.04 36.4489 151.938 36.7071C152.774 36.9405 153.587 37.2487 154.369 37.6281C155.042 37.9502 155.664 38.3707 156.216 38.8761C156.739 39.3747 157.149 39.9832 157.417 40.6589C157.728 41.473 157.877 42.3413 157.857 43.2141C157.872 44.1422 157.734 45.0663 157.447 45.9477C157.19 46.71 156.792 47.4158 156.275 48.0275C155.755 48.6305 155.116 49.1162 154.4 49.4528C153.59 49.8312 152.732 50.0915 151.85 50.2262C150.775 50.3937 149.687 50.4733 148.599 50.4641C147.541 50.4614 146.484 50.3918 145.435 50.256C144.341 50.1173 143.247 49.9289 142.152 49.6905C141.074 49.4577 140.009 49.1701 138.959 48.8289C137.923 48.4941 136.936 48.1477 136 47.7899L136.762 53.673C137.761 54.051 138.778 54.378 139.809 54.6526C140.745 54.9017 141.693 55.1001 142.65 55.2468C143.568 55.3848 144.487 55.4937 145.405 55.5736C146.324 55.6535 147.252 55.6931 148.188 55.6924C150.286 55.7056 152.379 55.4864 154.43 55.0387C156.245 54.6526 157.974 53.9272 159.527 52.8995C160.977 51.9266 162.149 50.5842 162.927 49.0071C163.782 47.139 164.193 45.0934 164.127 43.0348C164.159 41.5011 163.932 39.9733 163.454 38.5176C163.044 37.3194 162.384 36.2252 161.518 35.3106Z" fill="#114F9D"/>
<path d="M196.589 51.2959C196.161 51.3357 195.73 51.27 195.331 51.1045C194.933 50.939 194.581 50.6785 194.303 50.3451C193.76 49.3929 193.534 48.2883 193.659 47.1955L193.776 34.954C193.789 33.6706 193.631 32.3914 193.307 31.1508C193.023 30.0623 192.546 29.0351 191.9 28.1191C191.248 27.224 190.421 26.4754 189.47 25.9204C188.363 25.2844 187.168 24.8238 185.924 24.5546C184.404 24.2215 182.851 24.0621 181.295 24.0792C180.06 24.0782 178.827 24.1573 177.602 24.3159C176.445 24.4643 175.3 24.6929 174.174 25.0002C173.13 25.2871 172.103 25.6344 171.097 26.0402L170.394 31.0913C171.371 30.7357 172.3 30.4386 173.178 30.1999C174.056 29.9612 174.906 29.7641 175.727 29.6057C176.531 29.4501 177.344 29.3414 178.16 29.2799C178.959 29.2204 179.75 29.1903 180.532 29.1897C181.727 29.164 182.92 29.304 184.077 29.6057C184.922 29.8203 185.699 30.2501 186.335 30.8546C186.9 31.442 187.304 32.1693 187.506 32.9642C187.756 33.9439 187.875 34.9534 187.858 35.9652L187.851 37.4558L181.003 37.9262C178.66 37.9925 176.352 38.5167 174.205 39.4702C172.599 40.1832 171.212 41.3227 170.19 42.7684C169.324 44.0549 168.864 45.5782 168.872 47.1361C168.861 48.5982 169.214 50.0396 169.898 51.3266C170.615 52.6482 171.693 53.7313 173.003 54.4454C174.602 55.2887 176.388 55.6982 178.189 55.6339C179.876 55.6732 181.556 55.3913 183.141 54.803C184.511 54.2594 185.765 53.4522 186.833 52.426C187.239 52.0321 187.624 51.6166 187.986 51.181C188.1 51.7966 188.314 52.3884 188.621 52.9321C189.143 53.8418 189.946 54.5519 190.905 54.9525C191.966 55.3848 193.102 55.597 194.246 55.5765C194.598 55.5765 194.939 55.5656 195.271 55.5468C195.597 55.527 195.921 55.4769 196.238 55.3972C196.55 55.318 196.834 55.2497 197.088 55.1893C197.317 55.1379 197.543 55.0683 197.761 54.9812L198.406 51.0008C198.083 51.113 197.75 51.1926 197.411 51.2385C197.139 51.2745 196.864 51.2937 196.589 51.2959ZM186.832 48.6217C186.196 49.1312 185.509 49.5699 184.781 49.9301C184.055 50.2873 183.287 50.5471 182.495 50.7026C181.675 50.8626 180.841 50.9419 180.005 50.9394C179.05 50.9676 178.1 50.7851 177.222 50.4045C176.507 50.0904 175.903 49.5619 175.492 48.8901C175.087 48.1778 174.884 47.3652 174.907 46.5428C174.85 45.5516 175.118 44.5694 175.669 43.7489C176.307 42.9939 177.171 42.472 178.13 42.2633C179.627 41.9064 181.163 41.7469 182.7 41.7889H187.832L187.806 47.6868C187.508 48.0255 187.182 48.3389 186.832 48.6217Z" fill="#114F9D"/>
<path d="M190.553 9.93604H184.225L179.244 20.5731H183.816L190.553 9.93604Z" fill="#114F9D"/>
<path d="M226.504 25.951C224.4 24.6452 221.966 23.9943 219.501 24.0791C218.038 24.0865 216.582 24.2757 215.165 24.6426C213.633 25.0381 212.156 25.6274 210.77 26.3966C210.494 26.5482 210.222 26.7165 209.948 26.8869V24.1385L203.972 25.0893V67.5179H209.948V54.2135C209.988 54.2304 210.026 54.2492 210.067 54.2671C211.149 54.7225 212.28 55.0515 213.436 55.2476C214.801 55.476 216.183 55.5853 217.567 55.5744C220.205 55.6205 222.807 54.9426 225.096 53.6124C227.345 52.261 229.173 50.2945 230.37 47.9383C231.753 45.1285 232.427 42.0148 232.332 38.8759C232.388 36.2219 231.879 33.5871 230.839 31.1507C229.923 29.0274 228.416 27.2207 226.504 25.951ZM224.951 45.8287C224.247 47.4066 223.067 48.7172 221.581 49.5715C219.93 50.4489 218.083 50.879 216.22 50.8204C215.327 50.8211 214.435 50.7511 213.553 50.6114C212.627 50.462 211.716 50.2338 210.828 49.929C210.547 49.83 210.242 49.7171 209.949 49.6082V30.8545C210.027 30.8179 210.107 30.7703 210.185 30.7347C211.044 30.3385 211.845 30.0014 212.587 29.7235C213.29 29.4572 214.016 29.2583 214.756 29.1292C215.413 29.0144 216.079 28.9547 216.747 28.9509C218.554 28.8901 220.347 29.2885 221.963 30.1098C223.376 30.8898 224.482 32.1374 225.097 33.6445C225.843 35.5731 226.192 37.6357 226.124 39.7059C226.186 41.8098 225.785 43.9014 224.951 45.8287Z" fill="#114F9D"/>
<path d="M280.092 25.3271C278.494 24.4473 276.693 24.0165 274.876 24.0792C273.299 24.0749 271.733 24.3462 270.247 24.8814C268.737 25.4296 267.316 26.2002 266.027 27.1683C265.298 27.7171 264.603 28.3125 263.948 28.951C263.348 27.4632 262.289 26.2124 260.929 25.3855C259.312 24.5021 257.491 24.0717 255.655 24.1385C254.088 24.1388 252.533 24.4099 251.055 24.9399C249.539 25.4812 248.108 26.242 246.807 27.1989C246.386 27.5059 245.978 27.8397 245.576 28.1893V24.1425L239.599 25.0339V55.0436H245.576V32.4333C246.28 31.9654 247.014 31.5459 247.774 31.1775C248.703 30.7313 249.675 30.3825 250.674 30.1366C251.595 29.9067 252.539 29.7873 253.487 29.781C254.358 29.7539 255.225 29.9055 256.036 30.2266C256.707 30.515 257.3 30.9632 257.765 31.5331C258.274 32.1959 258.625 32.9691 258.79 33.7922C259.019 34.8555 259.127 35.9417 259.113 37.0298V55.0367H265.09V35.7819C265.094 34.6452 265.018 33.5097 264.863 32.3839C265.541 31.9331 266.243 31.5204 266.965 31.1478C267.879 30.6808 268.842 30.3219 269.837 30.0782C270.776 29.8442 271.74 29.7241 272.708 29.7205C273.569 29.6997 274.425 29.8515 275.228 30.1673C275.911 30.4493 276.515 30.8984 276.986 31.4746C277.495 32.1365 277.846 32.9096 278.011 33.7328C278.24 34.7964 278.348 35.883 278.333 36.9714V55.0367H284.311V35.7235C284.386 33.4761 284.028 31.2353 283.256 29.1273C282.648 27.5387 281.534 26.2015 280.092 25.3271Z" fill="#114F9D"/>
<path d="M293.159 55.0398H299.136V24.1386L293.159 25.03V55.0398Z" fill="#114F9D"/>
<path d="M299.722 13.1737C299.374 12.5642 298.881 12.0533 298.287 11.6881C297.678 11.3114 296.978 11.116 296.265 11.1245C295.543 11.1183 294.834 11.3133 294.214 11.6881C293.603 12.0509 293.089 12.5612 292.72 13.1737C292.348 13.7909 292.155 14.5017 292.163 15.2248C292.157 15.9567 292.35 16.6762 292.72 17.3047C293.077 17.9268 293.594 18.4399 294.214 18.7903C294.84 19.1475 295.547 19.332 296.265 19.3252C296.974 19.3344 297.672 19.1496 298.287 18.7903C298.89 18.4372 299.386 17.9234 299.722 17.3047C300.075 16.6701 300.256 15.953 300.25 15.2248C300.258 14.5055 300.076 13.7972 299.722 13.1737Z" fill="#114F9D"/>
</svg>

<svg xmlns="http://www.w3.org/2000/svg" viewBox="0 0 301 68"><path fill="#0A2343" d="M0 55V13.004h13.78V55H0Zm32.528-35.312L40.453 55h-15.08l-9.464-41.996h8.459a7.965 7.965 0 0 1 5.293 1.922 8.31 8.31 0 0 1 2.867 4.762ZM42.523 55V13.004h13.78V55h-13.78Zm24.189-26.026a8.213 8.213 0 0 1-4.228-1.124 8.336 8.336 0 0 1-3.046-3.046 8.206 8.206 0 0 1-1.125-4.229 8.056 8.056 0 0 1 1.125-4.2 8.437 8.437 0 0 1 3.046-3.016 8.233 8.233 0 0 1 4.228-1.124 8.083 8.083 0 0 1 4.199 1.124 8.504 8.504 0 0 1 3.016 3.016 8.075 8.075 0 0 1 1.125 4.2 8.226 8.226 0 0 1-1.125 4.23 8.4 8.4 0 0 1-3.016 3.045 8.059 8.059 0 0 1-4.201 1.124h.002ZM77.18 55V13.004h13.781V55H77.181Zm31.227-19.046c.039.04.334.524.887 1.449.553.925 1.272 2.108 2.159 3.549a1143.28 1143.28 0 0 1 5.589 9.168A854.89 854.89 0 0 0 120 55h-15.141c-.947-1.538-1.804-2.928-2.573-4.17a382.214 382.214 0 0 1-2.453-4.022 351.934 351.934 0 0 0-2.574-4.2 213.445 213.445 0 0 1-2.188-3.578 62.753 62.753 0 0 0-1.272-2.07 6.119 6.119 0 0 1-1.005-2.958 5.744 5.744 0 0 1 .946-2.84c.236-.394.67-1.095 1.3-2.1.632-1.006 1.371-2.198 2.219-3.579a636.03 636.03 0 0 0 2.574-4.229c.869-1.439 1.686-2.79 2.453-4.052.77-1.26 1.628-2.66 2.573-4.2H120l-11.711 19.106a3.773 3.773 0 0 0-.592 1.894c.039.706.286 1.385.709 1.952h.002Z"/><path fill="#114F9D" d="M161.518 35.31a11.156 11.156 0 0 0-2.93-2.169 22.692 22.692 0 0 0-3.546-1.455 39.889 39.889 0 0 0-3.867-1.012 82.353 82.353 0 0 1-2.842-.712 12.97 12.97 0 0 1-2.345-.862 7.754 7.754 0 0 1-1.786-1.189 4.287 4.287 0 0 1-1.144-1.663 6.493 6.493 0 0 1-.38-2.348 7.226 7.226 0 0 1 .38-2.436 4.552 4.552 0 0 1 1.172-1.813 7.239 7.239 0 0 1 1.847-1.247 8.604 8.604 0 0 1 2.431-.713c1-.144 2.009-.214 3.019-.208.92.002 1.839.051 2.753.148.926.098 1.846.247 2.756.446a22.29 22.29 0 0 1 2.607.743c.799.279 1.574.627 2.315 1.04l.82-5.23a14.476 14.476 0 0 0-2.607-1.069 34.717 34.717 0 0 0-2.784-.714 27.467 27.467 0 0 0-2.871-.445 29.6 29.6 0 0 0-2.989-.148 24.62 24.62 0 0 0-6.153.712 13.829 13.829 0 0 0-4.775 2.2 9.889 9.889 0 0 0-3.106 3.742 12.255 12.255 0 0 0-1.084 5.348 11.657 11.657 0 0 0 .674 4.189 8.596 8.596 0 0 0 1.904 3.002 11.341 11.341 0 0 0 2.813 2.08c1.1.575 2.247 1.052 3.429 1.427 1.23.396 2.49.733 3.779 1.01 1.055.237 2.032.485 2.93.743a14.5 14.5 0 0 1 2.431.921 7.583 7.583 0 0 1 1.847 1.248 5.02 5.02 0 0 1 1.201 1.783 6.73 6.73 0 0 1 .44 2.555 8.392 8.392 0 0 1-.41 2.734 6.38 6.38 0 0 1-1.172 2.08 5.653 5.653 0 0 1-1.875 1.425 9.362 9.362 0 0 1-2.55.773 20.024 20.024 0 0 1-3.251.238 25.147 25.147 0 0 1-3.164-.208 37.734 37.734 0 0 1-3.283-.566 32.588 32.588 0 0 1-3.193-.861 59.775 59.775 0 0 1-2.959-1.04l.762 5.884a31.57 31.57 0 0 0 3.047.98c.936.249 1.884.447 2.841.594.918.138 1.837.247 2.755.327.919.08 1.847.12 2.783.118a28.428 28.428 0 0 0 6.242-.653 14.827 14.827 0 0 0 5.097-2.14 10.023 10.023 0 0 0 3.4-3.892 13.329 13.329 0 0 0 1.2-5.972 13.573 13.573 0 0 0-.673-4.517 8.812 8.812 0 0 0-1.936-3.207ZM196.589 51.296a2.642 2.642 0 0 1-1.258-.191 2.677 2.677 0 0 1-1.028-.76 5.175 5.175 0 0 1-.644-3.15l.117-12.241a14.473 14.473 0 0 0-.469-3.803 9.362 9.362 0 0 0-1.407-3.032 7.99 7.99 0 0 0-2.43-2.199 12.367 12.367 0 0 0-3.546-1.365 20.569 20.569 0 0 0-4.629-.476 28.575 28.575 0 0 0-3.693.237 25.19 25.19 0 0 0-3.428.684 28.199 28.199 0 0 0-3.077 1.04l-.703 5.051a35.08 35.08 0 0 1 2.784-.891 34.986 34.986 0 0 1 2.549-.594 21.192 21.192 0 0 1 2.433-.326c.799-.06 1.59-.09 2.372-.09a12.946 12.946 0 0 1 3.545.416 5.1 5.1 0 0 1 2.258 1.249 4.72 4.72 0 0 1 1.171 2.11c.25.979.369 1.988.352 3l-.007 1.49-6.848.471a18 18 0 0 0-6.798 1.544 9.782 9.782 0 0 0-4.015 3.298 7.753 7.753 0 0 0-1.318 4.368 8.791 8.791 0 0 0 1.026 4.19 7.765 7.765 0 0 0 3.105 3.12 10.323 10.323 0 0 0 5.186 1.188c1.687.04 3.367-.243 4.952-.831a11.397 11.397 0 0 0 3.692-2.377c.406-.394.791-.81 1.153-1.245.114.616.328 1.207.635 1.751a4.746 4.746 0 0 0 2.284 2.02 8.45 8.45 0 0 0 3.341.625c.352 0 .693-.011 1.025-.03.326-.02.65-.07.967-.15.312-.079.596-.147.85-.208.229-.051.455-.12.673-.208l.645-3.98a5.128 5.128 0 0 1-.995.238 6.677 6.677 0 0 1-.822.057Zm-9.757-2.674c-.636.51-1.323.948-2.051 1.308a9.186 9.186 0 0 1-2.286.773c-.82.16-1.654.239-2.49.236a6.513 6.513 0 0 1-2.783-.535 3.842 3.842 0 0 1-1.73-1.514 4.497 4.497 0 0 1-.585-2.347 4.545 4.545 0 0 1 .762-2.794 4.466 4.466 0 0 1 2.461-1.486 17.627 17.627 0 0 1 4.57-.474h5.132l-.026 5.898a7.973 7.973 0 0 1-.974.935ZM190.553 9.936h-6.328l-4.981 10.637h4.572l6.737-10.637ZM226.504 25.951a12.461 12.461 0 0 0-7.003-1.872 17.651 17.651 0 0 0-4.336.564 18.68 18.68 0 0 0-4.395 1.754c-.276.151-.548.32-.822.49v-2.748l-5.976.95v42.429h5.976V54.214c.04.016.078.035.119.053a15.27 15.27 0 0 0 3.369.98 23.89 23.89 0 0 0 4.131.327c2.638.047 5.24-.631 7.529-1.962a14.024 14.024 0 0 0 5.274-5.674 19.211 19.211 0 0 0 1.962-9.062 18.678 18.678 0 0 0-1.493-7.725 11.893 11.893 0 0 0-4.335-5.2Zm-1.553 19.878a8.136 8.136 0 0 1-3.37 3.742 10.704 10.704 0 0 1-5.361 1.25 16.473 16.473 0 0 1-5.392-.891 56.271 56.271 0 0 1-.879-.322V30.855c.078-.037.158-.085.236-.12a35.52 35.52 0 0 1 2.402-1.011 11.89 11.89 0 0 1 4.16-.773c1.807-.06 3.6.337 5.216 1.159a7.093 7.093 0 0 1 3.134 3.535 15.403 15.403 0 0 1 1.027 6.06 14.357 14.357 0 0 1-1.173 6.124ZM280.092 25.327a10.09 10.09 0 0 0-5.216-1.248 13.55 13.55 0 0 0-4.629.802 16.274 16.274 0 0 0-4.22 2.287 21.525 21.525 0 0 0-2.079 1.783 7.413 7.413 0 0 0-3.019-3.566 10.223 10.223 0 0 0-5.274-1.247c-1.567 0-3.122.272-4.6.802a16.58 16.58 0 0 0-4.248 2.259c-.421.307-.829.64-1.231.99v-4.047l-5.977.892v30.01h5.977v-22.61a18.73 18.73 0 0 1 2.198-1.256 14.955 14.955 0 0 1 2.9-1.041 11.94 11.94 0 0 1 2.813-.356 6.383 6.383 0 0 1 2.549.446 4.554 4.554 0 0 1 1.729 1.306c.509.663.86 1.436 1.025 2.26.229 1.063.337 2.149.323 3.237v18.007h5.977V35.782a24.287 24.287 0 0 0-.227-3.398 22.11 22.11 0 0 1 2.102-1.236 13.225 13.225 0 0 1 2.872-1.07 12.059 12.059 0 0 1 2.871-.357 6.456 6.456 0 0 1 2.52.446 4.48 4.48 0 0 1 1.758 1.308c.509.661.86 1.435 1.025 2.258.229 1.063.337 2.15.322 3.238v18.066h5.978V35.724a17.49 17.49 0 0 0-1.055-6.597 7.63 7.63 0 0 0-3.164-3.8ZM293.159 55.04h5.977V24.139l-5.977.891v30.01ZM299.722 13.174a4.167 4.167 0 0 0-1.435-1.486 3.756 3.756 0 0 0-2.022-.564 3.898 3.898 0 0 0-2.051.564 4.32 4.32 0 0 0-1.494 1.486 3.891 3.891 0 0 0-.557 2.05 4.036 4.036 0 0 0 .557 2.08 4.06 4.06 0 0 0 3.545 2.02 3.906 3.906 0 0 0 2.022-.534 3.847 3.847 0 0 0 1.435-1.485 4.207 4.207 0 0 0 .528-2.08 4.063 4.063 0 0 0-.528-2.051Z"/></svg>
